X: 051
T: Lady Ludy Ramsay's Strathspey
R: strathspey
M: C|
L: 1/8
Z: 2010 John Chambers <jc:trillian.mit.edu>
B: Abraham Mackintosh "A Collection of Strathspeys, Reels, Jigs &c.", Newcastle, after 1797, p.5
F: http://imslp.info/files/imglnks/usimg/a/a8/IMSLP80796-PMLP164326-Abraham_Mackintosh_coll.pdf
K: C
V: 1
f | e<gg>a g>ec<a | g>ca>c edd>f | e<gg>a g>age | f>d B<g ecc :|
e | G>cE>c d>cde | c<c {cd}e<d cAAc | G<cE<c d>cde | c>G A/B/c/G/ ECC ||
e | G>cE>c d>cde | c<c {cd}e<d cAAc | GcEc FdEc | A<ag>f ecc |]
V: 2 clef=bass middle=d
z | c2c2 e2f2 | e2f2 g2b2 | c'2c2 c2e2 | d2g2 c'2c :|
z | e2c2 g2g2 | e2g2 f2f2 | e2c2 g2g2 | c2c2 c2c2 ||
    e2c2 g2g2 | e2g2 f2f2 | e2c2 B2c2 | f2g2 c'2c |]

%%sep 2 1 500

